src/assets/icons/panque.svg

<svg width="98" height="106" viewBox="0 0 98 106" fill="none" xmlns="http://www.w3.org/2000/svg">
<g clip-path="url(#clip0_238_36)">
<path d="M45.0162 0.277967C38.3027 1.18218 31.9685 4.14142 26.8101 8.80633C21.1776 13.9028 17.0623 21.2598 15.5451 28.9661C15.2796 30.3019 15.0141 31.761 14.9572 32.172C14.8434 32.9118 14.8055 32.9529 14.1227 32.9529C13.0228 32.9529 10.5953 33.6927 9.3057 34.4325C7.76956 35.2956 5.45587 37.8028 4.65935 39.4673C2.28876 44.3583 3.08528 50.0302 6.68857 53.9347C7.78852 55.1266 8.49022 55.6815 9.64706 56.298L11.1832 57.0995L16.3606 78.8828C19.2053 90.8636 21.7276 101.139 21.9552 101.714C22.5051 103.009 23.4534 104.057 24.6481 104.694L25.5774 105.187H48.8092H72.0409L72.9702 104.694C74.146 104.077 75.0942 103.029 75.6252 101.796C75.8528 101.283 78.3751 91.0074 81.2388 78.965L86.4351 57.0995L87.9523 56.298C89.1281 55.6815 89.8298 55.1266 90.9298 53.9347C94.533 50.0302 95.3296 44.3583 92.959 39.4673C92.1625 37.8028 89.8488 35.2956 88.3126 34.4325C87.023 33.6927 84.5955 32.9529 83.4956 32.9529C82.8129 32.9529 82.7749 32.9118 82.6611 32.172C81.8646 26.6851 79.6458 20.0268 78.2993 19.0609C77.2183 18.28 75.5494 19.287 75.5494 20.7049C75.5494 21.0748 75.8718 22.164 76.289 23.1093C77.7114 26.4385 78.5837 29.9115 78.982 33.7338C79.0958 34.823 79.2665 35.871 79.3613 36.0765C79.7027 36.7547 80.5181 37.0013 82.6991 37.1041C84.6714 37.1863 84.9179 37.2479 86.2265 37.9466C87.9333 38.8508 89.0143 40.0633 89.8298 41.9539C90.3798 43.2075 90.4367 43.5157 90.4367 45.3036C90.4367 47.1531 90.3987 47.3381 89.735 48.8177C88.8816 50.6878 87.7816 51.8386 86.0179 52.7428L84.7473 53.4004H48.7902H12.8521L11.4108 52.6401C9.68499 51.7153 8.62297 50.5234 7.78852 48.6122C7.23855 47.3586 7.18165 47.0504 7.18165 45.2625C7.18165 43.413 7.21958 43.228 7.88335 41.7484C8.73676 39.8783 9.85568 38.707 11.6004 37.8233C12.7004 37.2685 13.0986 37.1863 14.9382 37.1041C17.1002 37.0013 17.9157 36.7547 18.257 36.0765C18.3519 35.871 18.5225 34.8024 18.6363 33.6927C20.1535 19.0609 29.8445 7.63496 43.2146 4.75793C46.2489 4.10032 51.4263 4.10032 54.4606 4.75793C58.3674 5.60049 61.4397 6.9157 64.9102 9.21734C67.2618 10.7792 67.8687 10.8819 68.7411 9.95715C69.3479 9.29954 69.4617 8.49808 69.0635 7.57331C68.8359 7.03901 67.0153 5.68269 64.5499 4.24417C61.7241 2.5796 58.007 1.24383 54.4037 0.565671C52.3366 0.195766 46.9696 0.031364 45.0162 0.277967ZM31.6271 78.8211C33.4857 90.4937 35.0408 100.296 35.0977 100.625L35.1925 101.18H30.8117H26.4308L25.8619 100.625C25.3309 100.07 25.0654 99.022 20.3621 79.191C17.6312 67.724 15.3744 58.1681 15.3175 57.9626C15.2227 57.6338 15.6209 57.6132 21.7276 57.6132H28.2514L31.6271 78.8211ZM46.9127 79.3965V101.18H42.968H39.0234L35.6477 79.9719C33.7891 68.2994 32.234 58.4969 32.1771 58.1681L32.0823 57.6132H39.4975H46.9127V79.3965ZM65.4412 58.1681C65.3843 58.4969 63.8292 68.2994 61.9707 79.9719L58.5949 101.18H54.6503H50.7056V79.3965V57.6132H58.1208H65.536L65.4412 58.1681ZM82.3008 57.9626C82.2439 58.1681 79.9871 67.724 77.2562 79.191C72.5719 99.0015 72.2875 100.07 71.7564 100.604L71.1875 101.18H66.8067H62.4258L62.5206 100.604C62.5775 100.296 64.1326 90.4937 65.9912 78.8211L69.3669 57.6132H75.8908C81.9974 57.6132 82.3956 57.6338 82.3008 57.9626Z" fill="#5F4A33"/>
<path d="M49.7764 8.58027C48.1264 9.56668 48.8281 12.4026 50.7056 12.4026C51.6728 12.4026 52.6021 11.3957 52.6021 10.3681C52.6021 8.82687 51.028 7.81991 49.7764 8.58027Z" fill="#5F4A33"/>
<path d="M72.1547 12.2793C70.5048 13.2657 71.2065 16.1017 73.084 16.1017C74.0512 16.1017 74.9804 15.0947 74.9804 14.0672C74.9804 12.5259 73.4064 11.519 72.1547 12.2793Z" fill="#5F4A33"/>
<path d="M38.3975 20.9104C36.7476 21.8969 37.4493 24.7328 39.3268 24.7328C40.294 24.7328 41.2233 23.7258 41.2233 22.6983C41.2233 21.157 39.6492 20.1501 38.3975 20.9104Z" fill="#5F4A33"/>
<path d="M59.4484 28.7195C57.7984 29.706 58.5001 32.5419 60.3776 32.5419C61.3448 32.5419 62.2741 31.5349 62.2741 30.5074C62.2741 28.9662 60.7 27.9592 59.4484 28.7195Z" fill="#5F4A33"/>
<path d="M27.0187 33.2406C25.3688 34.227 26.0705 37.063 27.948 37.063C28.9152 37.063 29.8445 36.056 29.8445 35.0285C29.8445 33.4872 28.2704 32.4802 27.0187 33.2406Z" fill="#5F4A33"/>
<path d="M42.1905 41.4607C40.5406 42.4471 41.2422 45.2831 43.1198 45.2831C44.087 45.2831 45.0162 44.2761 45.0162 43.2486C45.0162 41.7073 43.4422 40.7004 42.1905 41.4607Z" fill="#5F4A33"/>
<path d="M68.741 41.4607C67.0911 42.4471 67.7928 45.2831 69.6703 45.2831C70.6375 45.2831 71.5668 44.2761 71.5668 43.2486C71.5668 41.7073 69.9927 40.7004 68.741 41.4607Z" fill="#5F4A33"/>
</g>
<defs>
<clipPath id="clip0_238_36">
<rect width="97.0992" height="105.217" fill="white" transform="translate(0.259537 0.072464)"/>
</clipPath>
</defs>
</svg>

<svg width="98" height="106" fill="none" xmlns="http://www.w3.org/2000/svg"><g clip-path="url(#a)" fill="#5F4A33"><path d="M45.016.278c-6.713.904-13.047 3.863-18.206 8.528-5.632 5.097-9.748 12.454-11.265 20.16-.265 1.336-.53 2.795-.588 3.206-.114.74-.152.78-.834.78-1.1 0-3.528.74-4.817 1.48-1.536.864-3.85 3.37-4.647 5.035-2.37 4.891-1.574 10.563 2.03 14.468 1.1 1.192 1.801 1.746 2.958 2.363l1.536.801 5.178 21.784c2.844 11.98 5.367 22.256 5.594 22.831.55 1.295 1.498 2.343 2.693 2.98l.93.493H72.04l.93-.493c1.175-.617 2.123-1.665 2.654-2.898.228-.513 2.75-10.789 5.614-22.831l5.196-21.866 1.517-.801c1.176-.617 1.878-1.171 2.978-2.363 3.603-3.905 4.4-9.577 2.029-14.468-.797-1.664-3.11-4.171-4.646-5.035-1.29-.74-3.718-1.48-4.817-1.48-.683 0-.721-.04-.835-.78-.796-5.487-3.015-12.145-4.362-13.111-1.08-.781-2.75.226-2.75 1.644 0 .37.323 1.459.74 2.404 1.422 3.33 2.295 6.802 2.693 10.625.114 1.089.284 2.137.38 2.343.34.678 1.156.924 3.337 1.027 1.972.082 2.219.144 3.528.843 1.706.904 2.787 2.116 3.603 4.007.55 1.254.607 1.562.607 3.35 0 1.85-.038 2.034-.702 3.514-.853 1.87-1.953 3.02-3.717 3.925l-1.27.657H12.851l-1.441-.76c-1.726-.925-2.788-2.117-3.622-4.028-.55-1.253-.607-1.562-.607-3.35 0-1.849.038-2.034.701-3.514.854-1.87 1.973-3.041 3.717-3.925 1.1-.554 1.499-.637 3.338-.719 2.162-.103 2.978-.35 3.319-1.027.095-.206.265-1.275.38-2.384C20.153 19.06 29.843 7.635 43.214 4.758c3.034-.658 8.211-.658 11.246 0 3.906.842 6.979 2.158 10.45 4.46 2.35 1.561 2.958 1.664 3.83.74.607-.658.72-1.46.323-2.385-.228-.534-2.049-1.89-4.514-3.329-2.826-1.664-6.543-3-10.146-3.678C52.337.196 46.97.03 45.016.278zM31.627 78.821c1.859 11.673 3.414 21.475 3.47 21.804l.096.555H26.43l-.57-.555c-.53-.555-.796-1.603-5.499-21.434-2.73-11.467-4.988-21.023-5.044-21.228-.095-.33.303-.35 6.41-.35h6.523l3.376 21.208zm15.286.576v21.783h-7.89l-3.375-21.208c-1.859-11.673-3.414-21.475-3.47-21.804l-.096-.555h14.831v21.784zM65.44 58.168c-.057.329-1.612 10.131-3.47 21.804l-3.376 21.208H50.706V57.613h14.83l-.095.555zm16.86-.205c-.057.205-2.314 9.761-5.045 21.228-4.684 19.81-4.969 20.879-5.5 21.413l-.569.576h-8.761l.095-.576c.056-.308 1.612-10.11 3.47-21.783l3.376-21.208h6.524c6.106 0 6.505.02 6.41.35z"/><path d="M49.776 8.58c-1.65.987-.948 3.823.93 3.823.967 0 1.896-1.007 1.896-2.035 0-1.541-1.574-2.548-2.826-1.788zM72.155 12.28c-1.65.986-.948 3.822.929 3.822.967 0 1.896-1.007 1.896-2.035 0-1.541-1.574-2.548-2.825-1.788zM38.398 20.91c-1.65.987-.949 3.823.929 3.823.967 0 1.896-1.007 1.896-2.035 0-1.541-1.574-2.548-2.825-1.788zM59.448 28.72c-1.65.986-.948 3.822.93 3.822.967 0 1.896-1.007 1.896-2.035 0-1.54-1.574-2.548-2.826-1.788zM27.019 33.24c-1.65.987-.948 3.823.929 3.823.967 0 1.896-1.007 1.896-2.035 0-1.54-1.574-2.548-2.825-1.787zM42.19 41.46c-1.65.987-.948 3.823.93 3.823.967 0 1.896-1.007 1.896-2.034 0-1.542-1.574-2.549-2.825-1.788zM68.741 41.46c-1.65.987-.948 3.823.93 3.823.966 0 1.896-1.007 1.896-2.034 0-1.542-1.574-2.549-2.826-1.788z"/></g><defs><clipPath id="a"><path fill="#fff" transform="translate(.26 .072)" d="M0 0h97.099v105.217H0z"/></clipPath></defs></svg>
